img/logo-footer.svg

<svg width="205" height="55" viewBox="0 0 205 55" fill="none" xmlns="http://www.w3.org/2000/svg">
<g clip-path="url(#clip0_929_659)">
<path d="M72 20.8778V0.561523H76.122L82.1676 12.7401L88.2131 0.561523H92.3351V20.8778H88.7627V6.67887L83.2668 17.735H80.9584L75.4625 6.67887V20.934H72V20.8778Z" fill="white"/>
<path d="M98.05 19.1378C96.566 17.6786 95.8516 15.7705 95.8516 13.4694C95.8516 11.1684 96.5111 9.42863 98.05 7.80108C99.5339 6.3419 101.348 5.6123 103.381 5.6123C105.415 5.6123 107.338 6.3419 108.712 7.80108C110.196 9.26026 110.911 11.1684 110.911 13.4694C110.911 15.7705 110.251 17.5103 108.712 19.1378C107.228 20.597 105.415 21.3266 103.381 21.3266C101.348 21.3266 99.5888 20.597 98.05 19.1378ZM100.688 10.6072C99.8636 11.3368 99.4789 12.347 99.4789 13.6378C99.4789 14.9286 99.8636 15.9388 100.688 16.6684C101.512 17.398 102.447 17.847 103.546 17.847C104.645 17.847 105.579 17.398 106.404 16.6684C107.228 15.9388 107.503 14.9286 107.503 13.6378C107.503 12.347 107.118 11.3368 106.404 10.6072C105.579 9.87761 104.645 9.42863 103.546 9.42863C102.337 9.26026 101.512 9.70924 100.688 10.6072Z" fill="white"/>
<path d="M114.812 20.8775V6.3418H118.77L123.276 14.1989L127.783 6.3418H131.74V20.8775H128.168V11.6173L124.211 18.8571H122.287L118.33 11.6173V20.9336H114.812V20.8775Z" fill="white"/>
<path d="M139.486 15.2097C139.596 16.1077 140.036 16.6689 140.696 17.2301C141.355 17.6791 142.07 17.9597 143.004 17.9597C143.938 17.9597 144.378 17.7913 144.927 17.5107C145.477 17.2301 145.862 16.7811 146.301 16.2199L149.599 17.5107C149.049 18.6893 148.115 19.6995 147.016 20.2607C145.917 20.9903 144.543 21.2709 143.169 21.2709C141.135 21.2709 139.322 20.5413 137.948 19.0822C136.574 17.623 135.914 15.7148 135.914 13.4138C135.914 11.1128 136.574 9.37297 137.948 7.74542C139.322 6.17399 140.97 5.55664 143.004 5.55664C145.037 5.55664 146.851 6.28623 148.225 7.74542C149.599 9.2046 150.259 11.1128 150.259 13.2454C150.259 15.3781 150.259 14.2556 150.149 14.8168H139.431V15.2097H139.486ZM146.521 12.0107C146.411 11.1128 145.972 10.5515 145.312 9.99031C144.653 9.54133 143.828 9.26072 143.004 9.26072C142.179 9.26072 141.355 9.54133 140.696 9.99031C140.036 10.4393 139.596 11.1689 139.486 12.0107H146.521Z" fill="white"/>
<path d="M153.941 20.8775V6.3418H157.514V11.8418H163.944V6.3418H167.516V20.8775H163.944V15.3775H157.514V20.8775H153.941Z" fill="white"/>
<path d="M183.013 6.3418V9.82139H178.781V20.8775H175.209V9.87751H170.922V6.39792H183.013V6.3418Z" fill="white"/>
<path d="M71.0079 47.2558C71.6674 46.414 72.1071 45.2916 72.1071 44.0569V32.5518H84.9677L84.8577 51.8018H81.3953V36.0313H75.6245V44.3375C75.6245 46.1334 74.965 47.6487 73.591 49.0518C72.217 50.2865 70.4583 51.016 68.2599 51.016H67.4355L67.0508 48.5467H67.9851C69.2492 48.5467 70.3484 48.0977 71.0079 47.2558ZM87.3309 48.4905V55.0007H83.7586V51.8018H70.6232V55.0007H67.0508V48.4905H87.3309Z" fill="white"/>
<path d="M92.4953 50.2856C91.0114 48.8826 90.2969 47.0867 90.2969 44.8979C90.2969 42.7091 90.9564 41.0254 92.4953 39.5101C93.9792 38.1071 95.7929 37.4336 97.8264 37.4336C99.8599 37.4336 101.783 38.1071 103.157 39.5101C104.641 40.9132 105.356 42.7091 105.356 44.8979C105.356 47.0867 104.696 48.7703 103.157 50.2856C101.674 51.6887 99.8599 52.3622 97.8264 52.3622C95.7929 52.3622 93.8693 51.6887 92.4953 50.2856ZM94.9685 41.9795C94.1441 42.653 93.7593 43.6632 93.7593 44.8979C93.7593 46.1326 94.1441 47.1428 94.9685 47.8162C95.7929 48.4897 96.7272 48.9387 97.8264 48.9387C98.9256 48.9387 99.8599 48.5458 100.684 47.8162C101.509 47.1428 101.783 46.1326 101.783 44.8979C101.783 43.6632 101.399 42.653 100.684 41.9795C100.025 41.306 98.9256 40.8571 97.8264 40.8571C96.7272 40.8571 95.7929 41.306 94.9685 41.9795Z" fill="white"/>
<path d="M113.632 42.1074C112.972 42.7809 112.533 43.7911 112.533 45.0258C112.533 46.2605 112.917 47.2707 113.632 47.9442C114.291 48.6176 115.281 49.0666 116.38 49.0666C117.479 49.0666 117.864 48.9544 118.578 48.5054C119.238 48.1125 119.678 47.5513 120.062 46.8217L123.36 48.337C122.7 49.5717 121.876 50.5819 120.612 51.3676C119.403 52.0411 118.029 52.4901 116.49 52.4901C114.951 52.4901 112.643 51.8166 111.269 50.4136C109.785 49.0105 109.07 47.2146 109.07 45.0258C109.07 42.837 109.73 41.1534 111.269 39.6381C112.753 38.235 114.401 37.5615 116.49 37.5615C118.578 37.5615 119.348 37.9544 120.612 38.684C121.821 39.3574 122.81 40.4799 123.36 41.7146L120.062 43.2299C119.787 42.5564 119.238 41.8268 118.578 41.434C117.919 41.0411 117.204 40.7605 116.38 40.7605C115.281 40.985 114.291 41.434 113.632 42.1074Z" fill="white"/>
<path d="M137.95 38.1074V41.4186H133.718V51.9697H130.146V41.4186H125.914V38.1074H137.95Z" fill="white"/>
<path d="M149.325 46.133L146.303 46.5259C145.094 46.6381 144.544 47.0871 144.544 47.7605C144.544 48.434 144.654 48.434 145.094 48.7146C145.368 48.9952 145.918 48.9952 146.468 48.9952C147.292 48.9952 148.116 48.7146 148.666 48.3218C149.216 47.9289 149.49 47.1993 149.49 46.5259H150.425C150.425 48.2095 150.04 49.4442 149.051 50.5667C148.116 51.6891 146.852 52.2503 145.478 52.2503C144.104 52.2503 143.17 51.8575 142.455 51.1279C141.631 50.2861 141.246 49.332 141.246 48.2095C141.246 47.0871 141.631 45.9646 142.455 45.2912C143.28 44.6177 144.379 44.0565 145.753 43.8881L149.6 43.4952V43.383C149.6 42.8218 149.325 42.4289 148.941 41.9799C148.556 41.5871 147.842 41.4187 147.182 41.4187C146.523 41.4187 146.083 41.531 145.533 41.9799C144.984 42.3728 144.709 42.6534 144.599 43.2146L141.191 42.0922C141.576 40.9697 142.291 40.0156 143.39 39.3422C144.489 38.6687 145.698 38.2197 146.962 38.2197C148.226 38.2197 149.985 38.781 151.194 39.735C152.403 40.6891 152.953 41.9799 152.953 43.3269V52.3065H149.38V46.133H149.325Z" fill="white"/>
<path d="M165.978 51.9697H157.074V38.1074H165.703C167.077 38.1074 168.176 38.5003 169.11 39.2299C170.045 39.9033 170.484 40.9135 170.484 41.8676C170.484 42.8217 170.375 42.9901 169.935 43.5513C169.66 44.1125 169.11 44.3931 168.561 44.6737C169.22 44.9544 169.66 45.5156 170.045 46.0768C170.429 46.638 170.594 47.3115 170.594 48.1533C170.594 48.9952 170.21 50.1176 169.22 50.9033C168.616 51.5207 167.352 51.9697 165.978 51.9697ZM165.428 41.138H160.757V43.4952H165.703C166.088 43.4952 166.362 43.3829 166.637 43.2146C166.912 42.934 167.022 42.8217 167.022 42.5411C167.022 42.2605 166.912 41.8676 166.637 41.587C166.253 41.3064 165.868 41.138 165.428 41.138ZM165.703 46.2452H160.757V48.7146H165.813C166.198 48.7146 166.637 48.6023 166.912 48.3217C167.187 48.0411 167.297 47.7605 167.297 47.4799C167.297 47.1993 167.187 46.8064 166.912 46.638C166.527 46.4135 166.143 46.2452 165.703 46.2452Z" fill="white"/>
<path d="M174.5 51.9697V38.1074H178.072V43.2146H178.732L183.129 38.1074H187.635L181.755 45.0105L187.635 51.9135H183.129L178.732 46.9186H178.072V51.9135H174.5V51.9697Z" fill="white"/>
<path d="M205.002 51.9701H201.429V42.5415L195.384 51.8017H191.262V37.9395H194.834V46.919L200.88 37.9395H205.002V51.9701Z" fill="white"/>
<path fill-rule="evenodd" clip-rule="evenodd" d="M42.0442 9.5401L28.0295 1.2901C25.1716 -0.393575 21.5992 -0.393575 18.6863 1.2901L4.67158 9.5401C1.75871 11.2799 0 14.4228 0 17.8462V34.4023C0 37.7697 1.75871 40.9687 4.67158 42.7085L18.6863 50.9585C20.0054 51.7442 21.6542 52.1932 23.3579 52.1932C25.0617 52.1932 26.7105 51.7442 28.0295 50.9585L42.0442 42.7085C44.9021 41.0248 46.7158 37.8258 46.7158 34.4023V17.8462C46.7158 14.4228 44.9571 11.2799 42.0442 9.5401ZM23.3579 4.76969C24.1273 4.76969 25.0067 4.99418 25.7212 5.38704L39.7359 13.637C41.1649 14.4789 42.0992 16.1064 42.0992 17.8462V34.4023C42.0992 36.1421 41.1649 37.7697 39.7359 38.5554L25.7212 46.8615C24.2373 47.7595 22.4236 47.7595 20.9946 46.8615L6.97989 38.5554C5.55094 37.7136 4.61662 36.086 4.61662 34.3462V17.8462C4.61662 16.1064 5.55094 14.4789 6.97989 13.637L20.9946 5.38704C21.7091 4.99418 22.5885 4.76969 23.3579 4.76969ZM20.8828 25.7095C20.8828 25.2605 21.0477 24.8677 21.3775 24.5309C21.5973 24.3064 21.8721 24.0819 22.2568 23.8574L29.2917 20.434C30.3909 19.8728 31.7099 20.3779 32.2045 21.5003C32.4244 22.0615 32.4793 22.6789 32.2595 23.2401C32.0396 23.8013 31.6549 24.2503 31.1053 24.5309L25.2796 27.337V38.337C25.2796 39.5717 24.2903 40.5819 23.0812 40.5819C21.8721 40.5819 20.8828 39.5717 20.8828 38.337V25.9901V25.7095Z" fill="#F52671"/>
</g>
<defs>
<clipPath id="clip0_929_659">
<rect width="205" height="55" fill="white"/>
</clipPath>
</defs>
</svg>

<svg width="205" height="55" fill="none" xmlns="http://www.w3.org/2000/svg"><g clip-path="url(#a)"><path d="M72 20.878V.562h4.122l6.046 12.178L88.213.562h4.122v20.316h-3.572v-14.2l-5.496 11.057h-2.309L75.463 6.679v14.255H72v-.056Zm26.05-1.74c-1.484-1.46-2.198-3.368-2.198-5.669 0-2.3.66-4.04 2.198-5.668 1.484-1.46 3.298-2.189 5.331-2.189 2.034 0 3.957.73 5.331 2.19 1.484 1.458 2.199 3.366 2.199 5.667 0 2.302-.66 4.041-2.199 5.669-1.484 1.459-3.297 2.189-5.331 2.189-2.033 0-3.792-.73-5.331-2.19Zm2.638-8.53c-.824.729-1.21 1.739-1.21 3.03 0 1.29.386 2.3 1.21 3.03s1.759 1.179 2.858 1.179c1.099 0 2.033-.449 2.858-1.179.824-.73 1.099-1.74 1.099-3.03 0-1.291-.385-2.301-1.099-3.03-.825-.73-1.759-1.18-2.858-1.18-1.209-.168-2.034.281-2.858 1.18Zm14.124 10.27V6.342h3.958l4.506 7.857 4.507-7.857h3.957v14.536h-3.572v-9.26l-3.957 7.24h-1.924l-3.957-7.24v9.316h-3.518v-.056Zm24.674-5.668c.11.898.55 1.459 1.21 2.02.659.45 1.374.73 2.308.73.934 0 1.374-.169 1.923-.45.55-.28.935-.729 1.374-1.29l3.298 1.29c-.55 1.18-1.484 2.19-2.583 2.75-1.099.73-2.473 1.01-3.847 1.01-2.034 0-3.847-.729-5.221-2.188s-2.034-3.367-2.034-5.668.66-4.041 2.034-5.669c1.374-1.571 3.022-2.188 5.056-2.188 2.033 0 3.847.73 5.221 2.188 1.374 1.46 2.034 3.368 2.034 5.5 0 2.133 0 1.01-.11 1.572h-10.718v.393h.055Zm7.035-3.2c-.11-.897-.549-1.458-1.209-2.02a4.177 4.177 0 0 0-2.308-.73c-.825 0-1.649.281-2.308.73-.66.45-1.1 1.179-1.21 2.02h7.035Zm7.42 8.868V6.342h3.573v5.5h6.43v-5.5h3.572v14.536h-3.572v-5.5h-6.43v5.5h-3.573Zm29.072-14.536v3.48h-4.232v11.056h-3.572v-11h-4.287v-3.48h12.091v-.056ZM71.008 47.256a5.21 5.21 0 0 0 1.1-3.2V32.553h12.86l-.11 19.25h-3.463v-15.77h-5.77v8.306c0 1.795-.66 3.31-2.034 4.714-1.374 1.234-3.133 1.964-5.331 1.964h-.825l-.384-2.47h.934c1.264 0 2.363-.448 3.023-1.29ZM87.33 48.49V55h-3.572v-3.198H70.623V55h-3.572v-6.51h20.28Zm5.165 1.796c-1.484-1.403-2.198-3.2-2.198-5.388 0-2.189.66-3.873 2.198-5.388 1.484-1.403 3.298-2.076 5.331-2.076 2.034 0 3.957.673 5.331 2.076 1.484 1.403 2.199 3.2 2.199 5.388 0 2.189-.66 3.872-2.199 5.388-1.483 1.403-3.297 2.076-5.33 2.076-2.034 0-3.958-.673-5.332-2.076Zm2.474-8.306c-.825.673-1.21 1.683-1.21 2.918s.385 2.245 1.21 2.918c.824.674 1.758 1.123 2.857 1.123 1.1 0 2.034-.393 2.858-1.123.825-.673 1.099-1.683 1.099-2.918s-.384-2.245-1.099-2.919c-.659-.673-1.758-1.122-2.858-1.122-1.099 0-2.033.449-2.857 1.123Zm18.663.127c-.66.674-1.099 1.684-1.099 2.919 0 1.234.384 2.245 1.099 2.918.659.674 1.649 1.123 2.748 1.123 1.099 0 1.484-.113 2.198-.562.66-.393 1.1-.954 1.484-1.683l3.298 1.515c-.66 1.235-1.484 2.245-2.748 3.03-1.209.674-2.583 1.123-4.122 1.123-1.539 0-3.847-.673-5.221-2.076-1.484-1.404-2.199-3.2-2.199-5.388 0-2.189.66-3.873 2.199-5.388 1.484-1.403 3.132-2.076 5.221-2.076 2.088 0 2.858.392 4.122 1.122 1.209.673 2.198 1.796 2.748 3.03l-3.298 1.516c-.275-.674-.824-1.403-1.484-1.796-.659-.393-1.374-.673-2.198-.673-1.099.224-2.089.673-2.748 1.346Zm24.318-4v3.312h-4.232v10.55h-3.572V41.42h-4.232v-3.312h12.036Zm11.375 8.026-3.022.393c-1.209.112-1.759.561-1.759 1.234 0 .674.11.674.55.955.274.28.824.28 1.374.28.824 0 1.648-.28 2.198-.673s.824-1.123.824-1.796h.935c0 1.683-.385 2.918-1.374 4.04-.935 1.123-2.199 1.684-3.573 1.684s-2.308-.392-3.023-1.122c-.824-.842-1.209-1.796-1.209-2.919 0-1.122.385-2.244 1.209-2.918a6.402 6.402 0 0 1 3.298-1.403l3.847-.393v-.112c0-.561-.275-.954-.659-1.403-.385-.393-1.099-.561-1.759-.561-.659 0-1.099.112-1.649.56-.549.394-.824.674-.934 1.236l-3.408-1.123a5.086 5.086 0 0 1 2.199-2.75c1.099-.673 2.308-1.122 3.572-1.122 1.264 0 3.023.561 4.232 1.515 1.209.954 1.759 2.245 1.759 3.592v8.98h-3.573v-6.174h-.055Zm16.653 5.837h-8.904V38.107h8.629c1.374 0 2.473.393 3.407 1.123a3.249 3.249 0 0 1 1.374 2.638c0 .954-.109 1.122-.549 1.683-.275.561-.825.842-1.374 1.123.659.28 1.099.842 1.484 1.403.384.561.549 1.235.549 2.076 0 .842-.384 1.965-1.374 2.75-.604.618-1.868 1.067-3.242 1.067Zm-.55-10.832h-4.671v2.357h4.946c.385 0 .659-.112.934-.28.275-.281.385-.393.385-.674 0-.28-.11-.673-.385-.954-.384-.28-.769-.449-1.209-.449Zm.275 5.107h-4.946v2.47h5.056c.385 0 .824-.113 1.099-.393s.385-.562.385-.842c0-.28-.11-.674-.385-.842-.385-.224-.769-.393-1.209-.393Zm8.797 5.725V38.107h3.572v5.108h.66l4.397-5.108h4.506l-5.88 6.904 5.88 6.902h-4.506l-4.397-4.994h-.66v4.995H174.5v.056Zm30.502 0h-3.573v-9.428l-6.045 9.26h-4.122V37.94h3.572v8.979l6.046-8.98h4.122V51.97Z" fill="#fff"/><path fill-rule="evenodd" clip-rule="evenodd" d="M42.044 9.54 28.03 1.29c-2.858-1.684-6.43-1.684-9.344 0L4.672 9.54C1.759 11.28 0 14.423 0 17.846v16.556c0 3.368 1.759 6.567 4.672 8.306l14.014 8.25c1.32.786 2.968 1.235 4.672 1.235 1.704 0 3.352-.449 4.671-1.234l14.015-8.25c2.858-1.684 4.672-4.883 4.672-8.307V17.846c0-3.423-1.759-6.566-4.672-8.306ZM23.358 4.77c.77 0 1.649.224 2.363.617l14.015 8.25c1.429.842 2.363 2.47 2.363 4.21v16.555c0 1.74-.934 3.368-2.363 4.153L25.72 46.861c-1.484.899-3.297.899-4.726 0L6.98 38.556c-1.43-.841-2.363-2.469-2.363-4.209v-16.5c0-1.74.934-3.367 2.363-4.209l14.015-8.25a5.12 5.12 0 0 1 2.363-.617Zm-2.475 20.94c0-.45.165-.842.495-1.18.22-.224.494-.448.879-.673l7.035-3.423c1.099-.561 2.418-.056 2.913 1.066.22.561.274 1.179.055 1.74a2.39 2.39 0 0 1-1.155 1.29l-5.825 2.807v11c0 1.235-.99 2.245-2.199 2.245-1.209 0-2.198-1.01-2.198-2.245V25.71Z" fill="#F52671"/></g><defs><clipPath id="a"><path fill="#fff" d="M0 0h205v55H0z"/></clipPath></defs></svg>
